static/images/tech-icons/dark/net.svg

<?xml version="1.0" encoding="UTF-8"?>
<svg width="83px" height="34px" viewBox="0 0 83 34" version="1.1" xmlns="http://www.w3.org/2000/svg" xmlns:xlink="http://www.w3.org/1999/xlink">
    <title>net_logo</title>
    <g id="Racing-post,-Zopa,-ladbrokes" stroke="none" stroke-width="1" fill="none" fill-rule="evenodd">
        <g id="Artboard-Copy" transform="translate(-56.000000, -12.000000)" fill="#000000" fill-rule="nonzero">
            <g id="net_logo" transform="translate(56.000000, 12.000000)">
                <path d="M10.989,27.5059048 C10.9865134,30.5398464 8.52544275,32.9975602 5.49150066,32.9959049 C2.45755856,32.9942478 -0.000827341708,30.5338485 3.82794052e-08,27.4999061 C0.000827836042,24.4659636 2.46055565,22.0069048 5.4944982,22.0069048 C6.95251021,22.0069048 8.35074018,22.5864052 9.38128827,23.6177973 C10.4118364,24.6491894 10.9901923,26.0478933 10.989,27.5059048" id="path36"></path>
                <path d="M37.1114982,30.0484048 C37.1114982,31.6504048 36.3374982,32.4244049 34.7354982,32.4244049 L31.2254982,32.4244049 C29.6234982,32.4244049 28.8494982,31.6504048 28.8494982,30.0484048 L28.8494982,15.7969048 C28.8494982,13.8889048 28.1789982,12.5974048 25.9604982,12.5974048 C24.3351858,12.62423 22.7474806,13.0907447 21.3659982,13.9474048 L21.3659982,30.0574048 C21.3659982,31.6594048 20.5919982,32.4334048 18.9899982,32.4334048 L15.4799982,32.4334048 C13.8779982,32.4334048 13.1039982,31.6594048 13.1039982,30.0574048 L13.1039982,9.00190485 C13.1039982,7.40440485 13.8779982,6.62590485 15.4799982,6.62590485 L16.7714982,6.62590485 C17.9099982,6.62590485 18.3734982,7.19290485 19.0934982,8.48440485 C21.8070342,6.83064827 24.9159488,5.93838978 28.0934982,5.90140485 C35.1134982,5.90140485 37.1294982,9.61840485 37.1294982,14.5729048 L37.1114982,30.0484048 Z" id="path38"></path>
                <path d="M60.4485,22.2544049 L47.592,22.2544049 C47.385,25.6114049 49.14,26.5924049 53.1675,26.5924049 C55.1189653,26.6426516 57.0668545,26.3984069 58.9455,25.8679049 C61.011,25.4179049 62.1945,26.6419049 62.1945,28.1899049 L62.1945,29.1709049 C62.1945,30.5659049 61.677,31.4209049 60.336,31.9069049 C57.6602216,32.7339412 54.8746666,33.1511676 52.074,33.1444858 C43.5554982,33.1444858 39.4244982,28.8064049 39.4244982,19.5139049 C39.4244982,10.2214049 43.5014982,5.88340485 51.507,5.88340485 C61.47,5.88340485 63.018,12.5929049 62.8155,19.8739049 C62.8155,21.4219049 62.0415,22.2499049 60.4395,22.2499049 M47.592,17.1919049 L54.9225,17.1919049 C55.3725,14.3524049 54.7695,12.0799049 51.6195,12.0799049 C48.834,12.0799049 47.592,13.9384049 47.592,17.1919049" id="path40"></path>
                <path d="M67.8285,3.45790494 C67.8285,1.95940494 68.445,1.39240494 70.308,0.87490494 L73.008,0.150404917 C75.1455,-0.412095083 76.0905,0.67240494 76.0905,2.25190494 L76.0905,6.58990485 L80.1405,6.58990485 C81.7425,6.58990485 82.5165,7.36390485 82.5165,8.96590485 L82.5165,11.0854048 C82.5165,12.6874049 81.7425,13.4614048 80.1405,13.4614048 L76.0905,13.4614048 L76.0905,23.3344049 C76.0905,25.3504049 76.8645,26.4844049 79.497,26.4844049 L80.0145,26.4844049 C80.6015411,26.4594437 81.172788,26.6782608 81.5929245,27.089023 C82.013061,27.4997853 82.2447104,28.0659501 82.233,28.6534049 L82.233,30.3544048 C82.2711731,31.6224929 81.3686982,32.7246644 80.118,32.9374048 C79.3522672,33.07953 78.5747982,33.1488393 77.796,33.1446049 C70.4655,33.1446049 67.833,30.0979048 67.833,24.0049048 L67.833,13.4749048 L65.8215,13.4749048 C64.2195,13.4749048 63.4455,12.7009048 63.4455,11.0989048 L63.4455,9.90190485 C63.4455,8.55190485 64.0125,7.89040485 65.511,7.47640485 L67.833,6.85540485 L67.8285,3.45790494 Z" id="path42"></path>
            </g>
        </g>
    </g>
</svg>

<svg height="34" viewBox="0 0 83 34" width="83" xmlns="http://www.w3.org/2000/svg"><g><path d="m10.989 27.5059048c-.0024866 3.0339416-2.46355725 5.4916554-5.49749934 5.4900001-3.0339421-.0016571-5.492328-2.4620564-5.49150062-5.4959988.0008278-3.0339425 2.46055561-5.4930013 5.49449816-5.4930013 1.45801201 0 2.85624198.5795004 3.88679007 1.6108925 1.03054813 1.0313921 1.60890403 2.430096 1.60771173 3.8881075"/><path d="m37.1114982 30.0484048c0 1.602-.774 2.3760001-2.376 2.3760001h-3.51c-1.602 0-2.376-.7740001-2.376-2.3760001v-14.2515c0-1.908-.6705-3.1995-2.889-3.1995-1.6253124.0268252-3.2130176.4933399-4.5945 1.35v16.11c0 1.602-.774 2.376-2.376 2.376h-3.51c-1.602 0-2.376-.774-2.376-2.376v-21.05549995c0-1.5975.774-2.376 2.376-2.376h1.2915c1.1385 0 1.602.567 2.322 1.8585 2.713536-1.65375658 5.8224506-2.54601507 9-2.583 7.02 0 9.036 3.717 9.036 8.67149995z"/><path d="m60.4485 22.2544049h-12.8565c-.207 3.357 1.548 4.338 5.5755 4.338 1.9514653.0502467 3.8993545-.193998 5.778-.7245 2.0655-.45 3.249.774 3.249 2.322v.981c0 1.395-.5175 2.25-1.8585 2.736-2.6757784.8270363-5.4613334 1.2442627-8.262 1.2375809-8.5185018 0-12.6495018-4.3380809-12.6495018-13.6305809s4.077-13.63050005 12.0825018-13.63050005c9.963 0 11.511 6.70950005 11.3085 13.99050005 0 1.548-.774 2.376-2.376 2.376m-12.8475-5.058h7.3305c.45-2.8395-.153-5.112-3.303-5.112-2.7855 0-4.0275 1.8585-4.0275 5.112"/><path d="m67.8285 3.45790494c0-1.4985.6165-2.0655 2.4795-2.583l2.7-.72450002c2.1375-.5625 3.0825.52200002 3.0825 2.10150002v4.33799991h4.05c1.602 0 2.376.774 2.376 2.376v2.11949995c0 1.6020001-.774 2.376-2.376 2.376h-4.05v9.8730001c0 2.016.774 3.15 3.4065 3.15h.5175c.5870411-.0249612 1.158288.1938559 1.5784245.6046181.4201365.4107623.6517859.9769271.6400755 1.5643819v1.7009999c.0381731 1.2680881-.8643018 2.3702596-2.115 2.583-.7657328.1421252-1.5432018.2114345-2.322.2072001-7.3305 0-9.963-3.0467001-9.963-9.1397001v-10.53h-2.0115c-1.602 0-2.376-.774-2.376-2.376v-1.19699995c0-1.35.567-2.0115 2.0655-2.4255l2.322-.621z"/></g></svg>
